X: 13
T: Merry Coblers
%%VWML:Skillerns1780-2277i-p7-0
F:http://www.vwml.org/record/Skillerns1780/2277i/p7
%R: reel
B: "Twenty Four Country Dances for the Year 1780", Thomas Skillern, ed. p.7 #1
F: http://www.vwml.org/browse/browse-collections-dance-tune-books/browse-skillerns1780#
Z: 2014 John Chambers <jc:trillian.mit.edu>
M: C|
L: 1/8
K: D
A |\
FD F/G/A d2df | d2fd eEEA |\
FD F/G/A d2dg | faef dDD ::g |\
fdef aeef |
fdgf eEEg |\
[1 fdfg aeeg | fdec dDD :|\
[2 fdge afge | fdec dDD |]
W:
W:  Hands across quite round .|. Back again :|.
W:Lead down two Cu .|: up again Cast off :|: set 3
W:and 3 top and Bottom .||. the same sideways :||.
W:hands Six Round .||: Lead thro' the top and
W:Cast off :||:
%%endtext
T: Miss Edmonstons Reel
%R: reel
B: "Twenty Four Country Dances for the Year 1780", Thomas Skillern, ed. p.7 #2
F: http://www.vwml.org/browse/browse-collections-dance-tune-books/browse-skillerns1780#
Z: 2014 John Chambers <jc:trillian.mit.edu>
M: C|
L: 1/8
K: Bb
F |\
B2bg (fdTc>B) | AFcF dFcF |\
B2bg (fdTc>B) | B,BAc dB B :|
|: d |\
(BGTF>E) DEFD | ECCB cGGA |\
(BGTF>E) DEFD | B,BAc dB B :|
W:
W:  Cast off two Cu. & up again .|. lead down
W:the middle & up again :|. hands 3 with the
W:2d Lady the same with the 2d Gent: .|:
W:Right and Left at top :|:

